!!! OTL: Literature51
!!! Chapter: 5
!!! Section: II
!!! Page: 356
!!! Mode: 
!!! Encoder: DJB
**kern
*staff1
*I"Piano
=1-
*clefF4
*k[f#c#]
*b:
*M4/4
4r
4r
4r
4E\
=2
2F#\
8F#\L
8E\
8D\
8E\J
=3
2F#\
4BB/
4BB/
=4
4D\
4E\
4D\
8BB/L
8AA/J
=5
2BB/
2F#\
=6
4A\
4F#\
4A\
4B\
=7
4A\
4F#\
4F#\
4E\
=8
2D\
4A\
4A\
=9
2.F#\
4A\
=10
4.B\
8c#\
4d\
4F#\
=11
!!linebreak:original
4.A\
8B\
4A\
4A\
=12
2D\
4A\
4A\
=13
2.F#\
4C#/
=14
4.BB/
8C#/
4D\
4E\
=15
2F#\
8F#\L
8E\J
4D\
=16
4.E\
8D\
4BB/
4AA/
=17
2.BB/
4r
==
*-
